gama.ui.shared/icons_svg/light/display/toolbar.fullscreen.svg

<svg height="25" viewBox="-512.5 -3768.755 25 25" width="25" xmlns="http://www.w3.org/2000/svg"><g fill="none"><path d="m-508.16-3768.255h16.31997c2.12077 0 3.84003 1.7192 3.84003 3.84v16.32c0 2.121-1.71926 3.84-3.84003 3.84h-16.31997c-2.1208 0-3.84-1.719-3.84-3.84v-16.32c0-2.1208 1.7192-3.84 3.84-3.84z" fill="#fff"/><path d="m-508.16-3768.255h16.31997c2.12077 0 3.84003 1.7192 3.84003 3.84v16.32c0 2.121-1.71926 3.84-3.84003 3.84h-16.31997c-2.1208 0-3.84-1.719-3.84-3.84v-16.32c0-2.1208 1.7192-3.84 3.84-3.84z" stroke="#000" stroke-linecap="round" stroke-linejoin="round" stroke-width=".25"/><path d="m-493.7778-3752.366v-8.9445c0-.6455-.5211-1.1665-1.1667-1.1665h-10.1111c-.64554 0-1.16665.521-1.16665 1.1665v8.9445zm0 .7777h-12.44445v.3889c0 .6454.52111 1.1666 1.16665 1.1666h10.1111c.6456 0 1.1667-.5212 1.1667-1.1666zm-13.2222-9.7222c0-1.0735.8711-1.9445 1.9444-1.9445h10.1111c1.07336 0 1.9445.871 1.9445 1.9445v10.1111c0 1.0734-.87114 1.9444-1.9445 1.9444h-10.1111c-1.0733 0-1.9444-.871-1.9444-1.9444zm7 6.5022 1.7033-1.3611c.1711-.1323.4122-.1089.54445.0624.13225.171.10889.412-.06225.5442l-1.9444 1.5558c-.14.1165-.34224.1165-.48224 0l-1.94446-1.5558c-.1711-.1322-.1944-.3812-.0622-.5442.1322-.1713.3811-.1947.54444-.0624z" fill="#66727e"/></g></svg>

<?xml version="1.0" encoding="UTF-8" standalone="no"?>
<!DOCTYPE svg PUBLIC "-//W3C//DTD SVG 1.1//EN" "http://www.w3.org/Graphics/SVG/1.1/DTD/svg11.dtd">
<svg version="1.1" xmlns="http://www.w3.org/2000/svg" xmlns:xl="http://www.w3.org/1999/xlink" xmlns:dc="http://purl.org/dc/elements/1.1/" viewBox="-512.5 -3768.755 25 25" width="25" height="25">
  <defs/>
  <g id="SOURCES" stroke-dasharray="none" fill="none" stroke="none" fill-opacity="1" stroke-opacity="1">
    <title>SOURCES</title>
    <g id="SOURCES_Calque_2">
      <title>Calque 2</title>
      <g id="Graphic_8974">
        <path d="M -508.16 -3768.255 L -491.84003 -3768.255 C -489.71926 -3768.255 -488 -3766.5358 -488 -3764.415 L -488 -3748.095 C -488 -3745.974 -489.71926 -3744.255 -491.84003 -3744.255 L -508.16 -3744.255 C -510.2808 -3744.255 -512 -3745.974 -512 -3748.095 L -512 -3764.415 C -512 -3766.5358 -510.2808 -3768.255 -508.16 -3768.255 Z" fill="white"/>
        <path d="M -508.16 -3768.255 L -491.84003 -3768.255 C -489.71926 -3768.255 -488 -3766.5358 -488 -3764.415 L -488 -3748.095 C -488 -3745.974 -489.71926 -3744.255 -491.84003 -3744.255 L -508.16 -3744.255 C -510.2808 -3744.255 -512 -3745.974 -512 -3748.095 L -512 -3764.415 C -512 -3766.5358 -510.2808 -3768.255 -508.16 -3768.255 Z" stroke="black" stroke-linecap="round" stroke-linejoin="round" stroke-width=".25"/>
      </g>
      <g id="Group_8972">
        <title>to-bottom</title>
        <g id="Graphic_8973">
          <path d="M -493.7778 -3752.366 L -493.7778 -3761.3105 C -493.7778 -3761.956 -494.2989 -3762.477 -494.9445 -3762.477 L -505.0556 -3762.477 C -505.70114 -3762.477 -506.22225 -3761.956 -506.22225 -3761.3105 L -506.22225 -3752.366 Z M -493.7778 -3751.5883 L -506.22225 -3751.5883 L -506.22225 -3751.1994 C -506.22225 -3750.554 -505.70114 -3750.0328 -505.0556 -3750.0328 L -494.9445 -3750.0328 C -494.2989 -3750.0328 -493.7778 -3750.554 -493.7778 -3751.1994 Z M -507 -3761.3105 C -507 -3762.384 -506.1289 -3763.255 -505.0556 -3763.255 L -494.9445 -3763.255 C -493.87114 -3763.255 -493 -3762.384 -493 -3761.3105 L -493 -3751.1994 C -493 -3750.126 -493.87114 -3749.255 -494.9445 -3749.255 L -505.0556 -3749.255 C -506.1289 -3749.255 -507 -3750.126 -507 -3751.1994 Z M -500 -3754.8083 L -498.2967 -3756.1694 C -498.1256 -3756.3017 -497.8845 -3756.2783 -497.75225 -3756.107 C -497.62 -3755.936 -497.64336 -3755.695 -497.8145 -3755.5628 L -499.7589 -3754.007 C -499.8989 -3753.8905 -500.10114 -3753.8905 -500.24114 -3754.007 L -502.1856 -3755.5628 C -502.3567 -3755.695 -502.38 -3755.944 -502.2478 -3756.107 C -502.1156 -3756.2783 -501.8667 -3756.3017 -501.70336 -3756.1694 Z" fill="#66727e"/>
        </g>
      </g>
    </g>
  </g>
</svg>
